X:1
T:De ore prudentis
T:Severo Bonino
T:Source : Primo libro de motetti a tre voci---op III---Venetia---A.Raverii---1609. Editor : André Vierendeels (06/09/17).
T:Notes : Original clefs : C1, C1, F4 Editorial accidentals above the staff m 8 in S 1 : "G" notetad as quarter in original print
T:De ore prudentis
T:©
T:©
T:©
T:©
T:©
T:©
T:©
C:Severo Bonino
Z:©
%%score [ 1 2 3 ]
L:1/8
Q:1/4=120
M:4/4
K:F
V:1 treble nm="Soprano 1" snm="S 1"
V:2 treble nm="Soprano 2" snm="S 2"
V:3 bass nm="Bass" snm="B"
V:1
 z8 | z4 F4- | F4 c4 | A2 B2 cBAG | FEFG F4- | F2 ED E4 | F4 z4 | z2 F2 F2 G2 | A2 c2 B2 G2 | %9
w: |De|_ o-|re pru- den- * * *|||tis|pro- ce- dit|mel, pro- ce- dit|
 A2 A2 B2 c2 | d4 z2 c2 | c2 c2 B2 A2 | A2 G2 A2 A2 | A2 A2 G2 F2 | D2 E2 F2 A2 | B2 c2 d2 c2 | %16
w: mel, pro- ce- dit|mel, Al-|le- lu- ia, Al-|le- lu- ia, Al-|le- lu- ia, Al-|le lu- ia, Al-|le- lu- ia, Al-|
 =B2 c4 B2 | c4 G4 | A6 G2 | F3 G E4 | z8 | z4 z2 G2 | A6 G2 | F3 G E4 | F4 D4- | D2 E2 F2 G2 | %26
w: le- * lu-|ia, dul-|ce- do|mel- * lis,||dul-|ce- do|mel- * lis,|est lin-||
 A6 B2 | c4 dcBA | G8 | A2 A2 A2 A2 | G2 F2 F2 E2 | F2 F2 B2 B2 | A2 F2 G2 A2 | %33
w: |* gua _ _ _|e-|ius, Al- le- lu-|ia, Al- le- lu-|ia, Al- le- lu-|ia, Al- le- lu-|
"^-natural" BAGF E3 F | G2 FE D2 D2 | E6 E2 | E2 E2 FG A2 | D2 z2 z4 | z4 z2 c2 | c2 c2 d4- | %40
w: ia, _ _ _ _ Al-|le- * * * lu-|ia, fa-|vus di- stil- * *|lans,|fa-|vus di- stil-|
 d2 =B2 c4 | A2 A2 B4 | F2 B2 B2 B2 | c4 A2 A2 | A2 A2 B3 c | d6 cB | c6 BA | B6 AG | A6 GF | %49
w: * lans la-|bi- a e-|ius, fa- vus di-|stil- lans, fa-|vus di- stil- *|||||
 G6 FE | F6 ED | E3 F G4 | F4 B3 A | G6 A2 | ^F2 G4 F2 |"^b" G2 F2 B2 B2 | A2 F2 G2 A2 | %57
w: |||lans la- bi-|a e-||ius, Al- le- lu-|ia, Al- le- lu-|
 B2 d2 d2 d2 | c2 B2 A3 A | B8 | z2 GA =B c2 B | c2 G2 G2 G2 | A4 F2 A2 | B4 G4 | z2 c2 c2 c2 | %65
w: ia, Al- le- lu-|ia, Al- le- lu-|ia,|Al- * le- * lu-|ia, fa- vus di-|stil- lans, di-|stil- lans,|fa- vus di-|
 d4 B4 | z2 F2 A4 | G2 G2 G2 G2 | A4 F2 c2 | c2 BA B4- | B2 AG A4- | A2 GF G4- | G2 FE F4- | %73
w: stil- lans|di- stil-|lans, fa- vus di-|stil- lans, di-|stil- * * *||||
 F2 ED B2 AG | A8 | G4 d4 | d2 d2 c4 | d4 z4 | z4 d2 B2 | c2 A2 B2 G2 | A4 G4 | B8 | A4 G4 | C8 | %84
w: ||lans la-|bi- a e-|ius,|Al- le-|lu- ia, Al- le-|lu- ia,|Al-|le- lu-|ia,|
 c4 A4 | B8 | B4 A4 | G4 F4- | F4 E4 | F8 |] %90
w: Al- le-|lu-|ia, Al-|le- lu-||ia.|
V:2
 F8 | c4 A2 B2 | cBAG F4- | F2 G2 AGFG | AGAB A3 B | G4 c4- | c4 B2 G2 | A4 z4 | z2 F2 D2 E2 | %9
w: De|o- re pru-|den- * * * *|||tis pro-|* ce- dit|mel,|pro- ce- dit|
 F2 F2 G2 A2 | B4 A4 | A2 A2 G2 F2 | D2 E2 F2 c2 | c2 c2 B2 A2 | F2 G2 A2 F2 | D2 F2 F2 E2 | %16
w: mel, pro- ce- dit|mel, Al-|le- lu- ia, Al-|le- lu- ia, Al-|le- lu- ia, Al-|le- lu- ia, Al-|le- lu- ia, Al-|
 D2 C2 D3 D | E8 | z8 | z4 z2 G2 | A6 G2 | F3 G E4 | z8 | z8 | A4 B2 c2 | d2 cB A2 G2 | F6 G2 | %27
w: le- * * lu-|ia,||dul-|ce- do|mel- * lis|||est lin- *|||
 A6 GF | E2 F4 E2 | F2 c2 c2 c2 | B2 A2 A2 G2 | A2 d2 d2 d2 | c2 B2 B2 c2 | d4 c4 | =B2 c4 B2 | %35
w: * gua _|e- * *|ius, Al- le- lu-|ia, Al- le- lu-|ia, Al- le- lu-|ia, Al- le- lu-|ia, Al-|le- * lu-|
 c2 G2 G2 G2 | A6 F2 | G4 E2 E2 | F6 E2 | F2 F2 F2 F2 | G6 E2 | F4 D2 D2 | z8 | z2 c2 c2 c2 | %44
w: ia, fa- vus di-|stil- lans|la- bi- a|e- *|ius, fa- vus di-|stil- lans|la- bi- a||fa- vus di-|
 d6 G2 | G2 B4 AG | A6 GF | G6 FE | F6 ED | E6 DC | D2 C2 c4- | c2 c2 B4 | A4 F4 | G4 B2 c2 | A8 | %55
w: stil- lans,|di- stil- * *|||||* lans la-|* bi- a|e- ius,|la- bi- a|e-|
 =B2 d2 d2 d2 |"^b" c2 B2 c2 c2 | d2 B2 B2 B2 |"^#" A2 G2 G2 F2 | G2 G2 G2 G2 | %60
w: ius, Al- le- lu-|ia, Al- le- lu-|ia, Al- le- lu-|ia, Al- le- lu-|ia, Al- le- lu-|
"^-natural" F2 E2 D3 D | E8 | z2 c2 c2 c2 | d4 B2 B2 | A8 | G2 G2 G2 G2 | A4 F4 | z2 E2 E2 E2 | %68
w: ia, Al- le- lu-|ia,|fa- vus di-|stil- lans, di-|stil-|lans, fa- vus di-|stil- lans,|fa- vus di-|
 F3 G A4 | D2 D2 d4- | d2 cB c4- | c2 BA B4- | B2 AG A4- | A2 GF G4- | G4 ^F4 | G4 B2 B2 | A8 | %77
w: stil- * *|lans, di stil-|||||* lans|la- bi- a|e-|
 B4 d2 B2 | c2 A2 B2 G2 | A2 F2 G4 | F4 _E4 | D6 d2 | c4 B4 | A4 G4- |"^-natural" G4 F2 E2 | %85
w: ius, Al- le-|lu- ia, Al- le-|lu- ia, Al-|le- lu-|ia, Al-|le- lu-|ia, Al-|* le- *|
 D2 E2 F4- | F2 E2 F4 | E4 F4 | G8 | A8 |] %90
w: |||lu-|ia.|
V:3
 z8 | z8 | z8 | z8 | z8 | C,8 | F,4 D,2 E,2 | F,E,D,C, B,,A,, G,,2 | F,,4 z4 | z2 F,2 _E,2 C,2 | %10
w: |||||De|o- re pru-|den- * * * * * *|tis|pro- ce- dit|
 B,,4 F,4 | F,2 F,2 G,2 A,2 | B,2 C2 F,4 | z8 | z4 z2 F,,2 | G,,2 A,,2 B,,2 C,2 | G,,6 G,,2 | %17
w: mel, Al-|le- lu- ia, Al-|le- lu- ia,||Al-|le- lu- ia, Al-|le- lu-|
 C,4 C,4 | F,6 E,2 | D,4 C,4 | z8 | z4 z2 C,2 | F,6 E,2 | D,4 C,4 | F,4 B,,4- | B,,2 C,2 D,4- | %26
w: ia, dul-|ce- do|mel- lis,||dul-|ce- do|mel- lis|est lin-||
 D,2 E,2 F,4 | F,,4 B,,4 | C,8 | F,,8 | z8 | z2 B,,2 B,,2 B,,2 | C,2 D,2 _E,2 F,2 | B,,4 C,4 | %34
w: |gua e-||ius,||Al- le- lu-|ia, Al- le- lu-|ia, Al-|
 G,,6 G,,2 | C,6 C,2 | C,2 C,2 D,4 | =B,,2 C,4 A,,2 |"^b" A,,3 B,, C,4 | F,,8 | z8 | z4 z2 B,,2 | %42
w: le- lu-|ia, fa-|vus di- stil-|lans la- bi-|a e- *|ius,||fa-|
 B,,2 B,,2 _E,4 | C,4 z2 F,2 | F,2 F,2 G,4- | G,2 F,E, F,4- |"^b" F,2 E,D, _E,4- | E,2 D,C, D,4- | %48
w: vus di- stil-|lans, fa-|vus di- stil-||||
 D,2 C,B,, C,4- | C,2 B,,A,, B,,4- | B,,2 A,,G,, A,,3 B,, | C,4 G,,4 | D,8 | _E,4 E,2 C,2 | D,8 | %55
w: |||* lans|la-|* bi- a|e-|
"^b" G,,2 B,,2 B,,2 B,,2 | C,2 D,2 _E,2 F,2 | B,,8 | z8 | z2 _E,2 E,2 E,2 | B,,2 C,2 G,,2 G,,2 | %61
w: ius, Al- le- lu-|ia, Al- le- lu-|ia,||Al- le- lu-|ia, Al- le- lu-|
 C,8 | z8 | z2 G,2 G,2 G,2 | A,4 F,4 | z8 | z2 D,2 D,2 D,2 | E,4 C,4 | z2 F,2 F,2 F,2 | G,6 F,E, | %70
w: ia,||fa- vus di-|stil- lans,||fa- vus- di-|stil- lans,|fa- vus di-|stil- * *|
 F,6 _E,D, | _E,6 D,C, | D,6 C,B,, | C,4 G,,4 | D,8 | G,4 G,2 G,2 | F,8 | B,,4 B,4 | A,4 G,4 | %79
w: ||||lans|la- bi- a|e-|ius, Al-|le- lu-|
 F,4 G,2 E,2 | F,2 D,2 _E,2 C,2 | B,,2 B,,2 B,2 G,2 | A,2 F,2 G,2 _E,2 | F,4 C,4- | C,4 D,2 C,2 | %85
w: ia, Al- le-|lu- ia, Al- le-|lu- ia, Al- le-|lu- ia, Al- le-|lu- ia,|_ Al- *|
 B,,6 A,,2 | G,,4 F,,4 | C,8- | C,8 | F,,8 |] %90
w: |* le-|lu-||ia.|

